X: 24
T: PATRICK'S POT
R: jig
Z: 2006 John Chambers <jc@trillian.mit.edu>
B: "Rinnci na h-\'Eireann" Elizabeth Burchenal, ed. G.Schirmer (1925) p.133
M: 6/8
L: 1/8
%Q: 3/8=126
K: C
|: "C"(c2e) (c2e) | "C"cdc BAG |  "F"A2c "G7"B2d | "C"(c2e) "G"d2G \
|  "C"(c2e) (c2e) | "C"cdc BAG | "Dm"Afe "G7"dcB | "C"c3 c3 :|
|: "C"(GAG) (E2c) | "C"(GAG) (E2c) | "Dm"(ABc)     (ded) | "G7"(fed) (cAG) \
|  "C"(GAG) (E2c) | "C"(GAG) (E2c) | "Dm"(Afe) "G7"(dcB) | "C"c3 c3 :|

%%sep 2 1 500

